X: 56
T: Curri Koun Dilich
%R: waltz
B: "The Hibernian Muse" p.34 - p.35 #1 F: http://imslp.org/wiki/The_Hibernian_Muse_%28Various%29
Z: 2015 John Chambers <jc:trillian.mit.edu>
P: No. LVI.
M: 3/4
L: 1/8
K: Em
% - - - - - - - - - - - - - - - - - - - - - - - - - - - - -
V: 1
|:\
B4{e}^d2 | e4f2 | g3ag2 | {g2}Tf4e2 | ^d2B2g2 | {g2}Tf4e2 | ^d2e2f2 | e2E2E2 | G3AG2 | d3ed2 |
d2B2d2 | (edefga) | {d}d2{c}B2{A}G2 | A3cB2 | {A}TG3FE2 | E6 :: g4a2 | b4c'2 | a4g2 | f2e2d2 |
g2f2e2 | a2g2f2 | b2a2g2 | f2Te2d2 | g4a2 | b3c'bc' | {b2}a4g2 | (fgfe)d2 | g2f2e2 | a2g2f2 |
b2a2{b}g2 | {a}f2{g}e2{f}d2 | {e}b2(c'bag) | a2(bagf) | g2(agfe) | f2(gfe)d | (bd'c'ba)g | (ac'bag)f | (gbagf)e | (fagfe)d |
e2E2E2 | E2F2G2 | G2A2B2 | B2c2d2 | d2F2F2 | F2G2A2 | A2B2c2 | B2c2d2 | e2E2E2 | E2F2G2 | G2A2B2 | {c}B3AB2 | E6 :|
% - - - - - - - - - - - - - - - - - - - - - - - - - - - - -
V: 2 clef=bass middle=d
|:\
e2g2f2 | g2e2^d2 | e4e2 | b2B2e2 | b4e2 | ^d2B2e2 | b4B2 | e4z2 | G4g2 | f4d2 |
g4B2 | c3def | g2G2B2 | c2A2G2 | B4B2 | c2C4 :: z6 | g4a2 | b4c'2 | d'2c'2b2 | a3bc'2 | a4d'2 |
g2f2e2 | d6 | z6 | g4a2 | b4c'2 | d'3c'b2 | a3bc'2 | a4d'2 | g4G2 | d4z2 | g2G2z2 |
f2F2z2 | e2E2z2 | d2D2z2 | g2G2z2 | f2F2z2 | e2E2z2 | d2D2z2 | c4z2 | z2z2e2 | e2f2g2 | g2a2b2 |
b2B2z2 | z2z2f2 | f2g2a2 | g2a2b2 | g2e2e2 | e2z2e2 | e2d2e2 | {a}b4B2 | e6 :|

%%sep 2 1 500
%%sep 1 1 500

